src/svg/media-fast-forward-outline.svg

<svg version="1.2" baseProfile="tiny" xmlns="http://www.w3.org/2000/svg" width="24" height="24" viewBox="0 0 24 24"><g><path d="M14 8.676l4.133 4.025-4.133 4.026v-8.051m-.2-2.276c-.994 0-1.8.807-1.8 1.801v9c0 .994.806 1.799 1.8 1.799.488 0 .93-.195 1.253-.512 2.381-2.314 5.947-5.787 5.947-5.787s-3.566-3.475-5.944-5.789c-.327-.314-.768-.512-1.256-.512zM5 8.676l4.133 4.025-4.133 4.026v-8.051m-.2-2.276c-.994 0-1.8.807-1.8 1.801v9c0 .994.806 1.799 1.8 1.799.488 0 .93-.195 1.253-.512 2.381-2.314 5.947-5.787 5.947-5.787s-3.566-3.474-5.944-5.789c-.327-.314-.768-.512-1.256-.512z"/></g></svg>

<?xml version="1.0" encoding="iso-8859-1"?>
<!-- Generator: Adobe Illustrator 16.2.1, SVG Export Plug-In . SVG Version: 6.00 Build 0)  -->
<svg version="1.2" baseProfile="tiny" xmlns="http://www.w3.org/2000/svg" xmlns:xlink="http://www.w3.org/1999/xlink" x="0px"
	 y="0px" width="24px" height="24px" viewBox="0 0 24 24" xml:space="preserve">
<g id="Layer_1">
	<g>
		<path d="M14,8.676l4.133,4.025L14,16.727v-4.025V8.676 M13.8,6.4c-0.994,0-1.8,0.807-1.8,1.801v4.5v4.5
			C12,18.195,12.806,19,13.8,19c0.488,0,0.93-0.195,1.253-0.512C17.434,16.174,21,12.701,21,12.701s-3.566-3.475-5.944-5.789
			C14.729,6.598,14.288,6.4,13.8,6.4z"/>
	</g>
	<g>
		<path d="M5,8.676l4.133,4.025L5,16.727V8.676 M4.8,6.4C3.806,6.4,3,7.207,3,8.201v9C3,18.195,3.806,19,4.8,19
			c0.488,0,0.93-0.195,1.253-0.512C8.434,16.174,12,12.701,12,12.701S8.434,9.227,6.056,6.912C5.729,6.598,5.288,6.4,4.8,6.4z"/>
	</g>
</g>
<g id="nyt_x5F_exporter_x5F_info" display="none">
</g>
</svg>
